X:41
T:Haste to the Wedding. JBu.41
O:England,South Yorkshire
S:Joshua Burnett’s MS,c1835,S.Yorkshire
M:6/8
L:1/8
Q:3/8=120
R:jig
N:No time sig in MS
Z:vmp.R.Greig.2011
K:D
A|AFG Aaf|ede fdB|AFA BdF|EFE E2A|
AFG Aaf|ede fdB|AFA faf|dddd2:|
|:a|afa afb|bgb bga|afa agf|eee e3|
a3 f3|ede fdB|AFA faf|ddd d2:|

